app/assets/v2/images/results/clock.svg

<svg width="107" height="105" xmlns="http://www.w3.org/2000/svg"><g fill="none" fill-rule="evenodd"><path d="M56.987 102.087C84.357 100.357 106 78.414 106 51.6 106 23.654 82.495 1 53.5 1S1 23.654 1 51.599C1 75.19 17.752 95.01 40.417 100.614" stroke="#15003E" fill="#0FCE7C" stroke-linecap="round"/><path fill="#15003E" d="M56.738 102.249l7.112-5.116 1.32 7.49z"/><path d="M53.641 95.648v3.169m-23.048-84.93l-1.762-2.675m49.125 81.292l-1.602-2.767m19.579-61.529l-2.855 1.573M15.468 74.31l-2.983 1.334m.352-43.588l-2.892-1.508m83.86 46.473l-2.728-1.77m8.053-23.758h3.289m-97.547 0H8.16m70.564-40.456l-1.781 2.664M53.641 4.803v3.169M31.25 89.31l-1.597 2.981" stroke="#15003E" stroke-linecap="round" stroke-width="2"/><path d="M35.087 20.542L53.61 51.435" stroke="#F9006C"/><path d="M66.996 35.846L53.61 51.493m.219.027v35.197" stroke="#15003E" stroke-width="2" stroke-linecap="round"/></g></svg>

<svg width="107" height="105" xmlns="http://www.w3.org/2000/svg"><g fill="none" fill-rule="evenodd"><path d="M56.987 102.087C84.357 100.357 106 78.414 106 51.6 106 23.654 82.495 1 53.5 1S1 23.654 1 51.599C1 75.19 17.752 95.01 40.417 100.614" stroke="#15003E" fill="#0FCE7C" stroke-linecap="round"/><path fill="#15003E" d="M56.738 102.249l7.112-5.116 1.32 7.49z"/><g stroke="#15003E" stroke-linecap="round" stroke-width="2"><path d="M53.641 95.648v3.169M30.593 13.887l-1.762-2.675M77.956 92.504l-1.602-2.767M95.933 28.208l-2.855 1.573M15.468 74.31l-2.983 1.334M12.837 32.056l-2.892-1.508M93.805 77.021l-2.728-1.77M99.13 51.493h3.289M4.872 51.493H8.16M78.724 11.037l-1.781 2.664M53.641 4.803v3.169M31.25 89.31l-1.597 2.981"/></g><path d="M35.087 20.542L53.61 51.435" stroke="#F9006C"/><path d="M66.996 35.846L53.61 51.493M53.829 51.52v35.197" stroke="#15003E" stroke-width="2" stroke-linecap="round"/></g></svg>
